X:16363
T:Temperance reel, The
T:Teatotaller, The
R:Reel
O:Ireland
M:4/4
K:G
D|G2 GF GA Bc|dB ge dB Ac| BE ED EF GA\
|1BG AF GF ED :|2BG AF G3:|*
|:A|Be ed e3f |ge af gf ed\
|1Bd d^c d3e|f2 af gf ed\
:|2BE ED EF GA| BG AF G3:|**
